ALTDEU
CUT[Die alte Schwieger und die Schnur]
REG[Europa, Mitteleuropa, Deutschland]
TRD[]
FKT[]
SIG[A0235]
KEY[A0235   04  F 4/4]
MEL[1122  331_
    2345  3_2_
    -6-71_  -6-71_
    21-71  -6_-5_ //]
BEM[]
MEL_SEM[0 2 0 2 0 -4 2 2 1 2 -3 -2 -5 2 1 -3 2 1 2 -2 -1 1 -3 -2]
MEL_RAW[1122  331
    2345  32
    -6-71  -6-71
    21-71  -6-5]
NO_REP[1231
    234532
    -6-71-6-71
    21-71-6-5]
RTM[xxxx  xxx_
    xxxx  x_x_
    xxx_  xxx_
    xxxx  x_x_]
SCL_DEG[-5-6-712345]
SCL_SEM[2 2 1 2 2 1 2]

